X:1
T:Title
%%score { 1 | 2 }
L:1/8
M:3/4
K:Db
V:1 treble nm="Grand Piano"
V:2 bass 
V:1
 z2 z2[Q:1/4=100] D>E | F3 F G>B | A2 F2 (3DEF | [CE]4 (3[CE][CF][CG] |[M:2/4] F4 |[M:1/4] D>E | %6
[M:3/4] F3 F G>B | A2 F2 (3DEF | [CE]4 (3:2:4[CE][CF][K:bass]G,/E/ |[M:2/4] [F,A,D]4 | %10
[M:1/4][K:treble] [DFA]>[DFA] |[M:3/4] [DGB]3 [DGB] [B,DG]>[DGB] | [DFA]2 [A,DF]2 [DFA]>[DFA] | %13
 [DGB]3 [DFA] [A,DF]>[K:bass][F,A,D] |[M:2/4] [A,CE]4 |[M:1/4][K:treble] D>E |[M:3/4] F3 F G>B | %17
 A2 F2 (3DEF | [CE]4 (3:2:4[CE][CF][K:bass]G,/E/ |[M:2/4] D4 |] %20
V:2
 z2 z2 [D,F,]>[D,G,D] | [D,A,D]3 [D,A,D] [D,B,D]>[D,G,D] | %2
 [D,F,D]2 [D,A,D]2 (3[D,F,A,][D,G,A,][D,A,D] | [A,,A,]4 (3[A,,A,][A,,A,][A,,A,] |[M:2/4] [D,A,D]4 | %5
[M:1/4] [D,F,]>[D,G,D] |[M:3/4] [D,A,D]3 [D,A,D] [D,B,D]>[D,G,D] | %7
 [D,G,D]2 [D,A,D]2 (3[D,F,A,][D,G,A,][D,A,D] | [A,,A,]4 (3:2:4[A,,A,][A,,A,]A,,/C/ |[M:2/4] D,4 | %10
[M:1/4] D,>D, |[M:3/4] G,3 G, G,>G, | D,2 D,2 D,>D, | G,3 D, D,>D, |[M:2/4] A,,4 | %15
[M:1/4] [D,F,]>[D,G,D] |[M:3/4] [D,A,D]3 [D,A,D] [D,B,D]>[D,G,D] | %17
 [D,F,D]2 [D,A,D]2 (3[D,F,A,][D,G,A,][D,A,D] | [A,,A,]4 (3:2:4[A,,A,][A,,A,]A,,/C/ | %19
[M:2/4] [D,F,A,]4 |] %20

